Newaita-dark/apps/64/flash.svg

<svg height="64pt" viewBox="0 0 64 64" width="64pt" xmlns="http://www.w3.org/2000/svg" xmlns:xlink="http://www.w3.org/1999/xlink"><linearGradient id="a" gradientUnits="userSpaceOnUse" x1="31.75304" x2="31.75304" y1="56.067872" y2="58.71396000006"><stop offset="0" stop-opacity=".27451"/><stop offset="1" stop-opacity="0"/></linearGradient><linearGradient id="b"><stop offset="0" stop-opacity=".313726"/><stop offset=".222222" stop-opacity=".27451"/><stop offset="1" stop-opacity="0"/></linearGradient><radialGradient id="c" cx="450.908936" cy="189.579361" gradientTransform="matrix(.00000035 -.156265 -.281277 -.0000002 106.24586 127.190665)" gradientUnits="userSpaceOnUse" r="21.166656" xlink:href="#b"/><radialGradient id="d" cx="450.908936" cy="189.579361" gradientTransform="matrix(-.00000035 .156265 .281277 .0000002 -42.409041 -15.054958)" gradientUnits="userSpaceOnUse" r="21.166656" xlink:href="#b"/><radialGradient id="e" cx="450.908936" cy="189.579361" gradientTransform="matrix(-.00000035 -.156265 .281277 -.0000002 -42.409041 127.190665)" gradientUnits="userSpaceOnUse" r="21.166656" xlink:href="#b"/><radialGradient id="f" cx="450.908936" cy="189.579361" gradientTransform="matrix(.00000035 .156265 -.281277 .0000002 106.245857 -15.054959)" gradientUnits="userSpaceOnUse" r="21.166656" xlink:href="#b"/><linearGradient id="g" gradientUnits="userSpaceOnUse" x1="31.753048" x2="31.753048" y1="56.067868" y2="5.79220799994"><stop offset="0" stop-color="#f44336"/><stop offset="1" stop-color="#ef5350"/></linearGradient><linearGradient id="h" gradientUnits="userSpaceOnUse" x1="31.753048" x2="31.753048" y1="56.067868" y2="5.79220799994"><stop offset="0" stop-color="#e0e0e0"/><stop offset="1" stop-color="#eee"/></linearGradient><path d="m10.253906 56.066406h43.328125v2.648438h-43.328125zm0 0" fill="url(#a)"/><path d="m53.582031 56.066406h5.292969v-2.644531h-5.292969zm0 0" fill="url(#c)"/><path d="m10.253906 56.066406h-5.292968v2.648438h5.292968zm0 0" fill="url(#d)"/><path d="m10.253906 56.066406h-5.292968v-2.644531h5.292968zm0 0" fill="url(#e)"/><path d="m53.582031 56.066406h5.292969v2.648438h-5.292969zm0 0" fill="url(#f)"/><path d="m7.277344 5.792969h48.953125c1.09375 0 1.984375.886719 1.984375 1.984375v46.304687c0 1.097657-.890625 1.984375-1.984375 1.984375h-48.953125c-1.097656 0-1.984375-.886718-1.984375-1.984375v-46.304687c0-1.097656.886719-1.984375 1.984375-1.984375zm0 0" fill="url(#g)"/><path d="m7.277344 5.953125c-1.101563 0-1.984375.882813-1.984375 1.984375v.328125c0-1.097656.882812-1.984375 1.984375-1.984375h48.953125c1.097656 0 1.984375.886719 1.984375 1.984375v-.328125c0-1.101562-.886719-1.984375-1.984375-1.984375zm0 0" fill="#fff" fill-opacity=".392157"/><path d="m7.277344 55.90625c-1.101563 0-1.984375-.882812-1.984375-1.984375v-.328125c0 1.097656.882812 1.984375 1.984375 1.984375h48.953125c1.097656 0 1.984375-.886719 1.984375-1.984375v.328125c0 1.101563-.886719 1.984375-1.984375 1.984375zm0 0" fill="#030303" fill-opacity=".235294"/><path d="m7.277344 5.605469c-1.199219 0-2.171875.972656-2.171875 2.171875v46.304687c0 1.203125.972656 2.171875 2.171875 2.171875h48.953125c1.199219 0 2.171875-.96875 2.171875-2.171875v-46.304687c0-1.199219-.972656-2.171875-2.171875-2.171875zm0 .375h48.953125c.996093 0 1.796875.796875 1.796875 1.796875v46.304687c0 1-.800782 1.796875-1.796875 1.796875h-48.953125c-1 0-1.796875-.796875-1.796875-1.796875v-46.304687c0-1 .796875-1.796875 1.796875-1.796875zm0 0" fill="#212121"/><path d="m44.984375 13.765625c-1.027344.019531-3.34375.226563-6.015625 1.5625-3.601562 1.804687-7.792969 5.628906-10.085938 14.007813-1.894531 6.914062-4.746093 10.144531-7.203124 11.605468-1.226563.730469-2.347657 1.011719-3.167969 1.105469-.265625.03125-.449219.023437-.652344.023437v5.902344c.945313.015625 3.042969-.097656 5.515625-1.214844 3.359375-1.519531 7.351562-4.871093 9.8125-12.460937l.136719-.425781h8.160156v-5.894532h-5.546875l.195312-.769531s.464844-1.855469 1.871094-3.710937c1.328125-1.753906 3.574219-3.527344 6.980469-3.777344zm0 0" fill="url(#h)"/><path d="m44.984375 13.765625c-1.027344.019531-3.34375.226563-6.015625 1.5625-3.601562 1.804687-7.792969 5.628906-10.085938 14.007813-1.894531 6.914062-4.746093 10.144531-7.203124 11.605468-1.226563.730469-2.347657 1.011719-3.167969 1.105469-.265625.03125-.449219.023437-.652344.023437v.953126c.203125 0 .386719.011718.652344-.019532.820312-.09375 1.941406-.375 3.167969-1.105468 2.457031-1.460938 5.308593-4.695313 7.203124-11.605469 2.292969-8.378907 6.484376-12.207031 10.085938-14.007813 2.671875-1.335937 4.988281-1.542968 6.015625-1.5625zm-8.800781 14.210937c-.035156.121094-.050782.183594-.050782.183594l-.195312.773438h5.546875v-.957032zm0 0" fill="#fff" fill-opacity=".983871"/><path d="m44.984375 19.707031c-3.40625.253907-5.652344 2.027344-6.980469 3.777344-1.40625 1.855469-1.871094 3.710937-1.871094 3.710937l-.195312.769532h.3125c.210938-.636719.734375-1.976563 1.753906-3.320313 1.328125-1.753906 3.574219-3.527343 6.980469-3.78125zm-11.660156 14.152344-.136719.429687c-2.460938 7.585938-6.453125 10.9375-9.8125 12.457032-2.472656 1.121094-4.570312 1.234375-5.515625 1.21875v1.15625c.945313.015625 3.042969-.097656 5.515625-1.214844 3.359375-1.523438 7.351562-4.871094 9.8125-12.460938l.136719-.429687h8.160156v-1.15625zm0 0" fill-opacity=".235294"/><path d="m359.840637-104.885515c-8.217965.156235-26.747446 1.812327-48.120405 12.498806-28.809749 14.436121-62.337797 45.02695-80.679795 112.0518-15.154803 55.307218-37.965125 81.1485-57.619498 92.834884-9.811563 5.843192-18.779457 8.092977-25.34133 8.842906-2.124797.249976-3.593407.187482-5.218252.187482v47.214241c7.561778.124988 24.341426-.781175 44.120787-9.717822 26.872434-12.155089 58.806884-38.965029 78.492504-99.677981l1.093646-3.405925h65.275017v-47.151747h-44.370763l1.562351-6.155662s3.718394-14.842333 14.96732-29.684665c10.623986-14.029911 28.59102-28.216056 55.838418-30.215865zm0 0" fill="none" stroke="#212121" stroke-width="3" transform="matrix(.125012 0 0 .125012 0 26.877566)"/></svg>

<?xml version="1.0" encoding="UTF-8"?>
<svg xmlns="http://www.w3.org/2000/svg" xmlns:xlink="http://www.w3.org/1999/xlink" width="64pt" height="64pt" viewBox="0 0 64 64" version="1.1">
<defs>
<linearGradient id="linear0" gradientUnits="userSpaceOnUse" x1="254" y1="233.5" x2="254" y2="254.666672" gradientTransform="matrix(0.125012,0,0,0.125012,-0.00000763012,26.87757)">
<stop offset="0" style="stop-color:rgb(0%,0%,0%);stop-opacity:0.27451;"/>
<stop offset="1" style="stop-color:rgb(0%,0%,0%);stop-opacity:0;"/>
</linearGradient>
<radialGradient id="radial0" gradientUnits="userSpaceOnUse" cx="450.908936" cy="189.579361" fx="450.908936" fy="189.579361" r="21.166656" gradientTransform="matrix(0.000000348341,-0.156265,-0.281277,-0.000000203077,106.24586,127.190665)">
<stop offset="0" style="stop-color:rgb(0%,0%,0%);stop-opacity:0.313726;"/>
<stop offset="0.222222" style="stop-color:rgb(0%,0%,0%);stop-opacity:0.27451;"/>
<stop offset="1" style="stop-color:rgb(0%,0%,0%);stop-opacity:0;"/>
</radialGradient>
<radialGradient id="radial1" gradientUnits="userSpaceOnUse" cx="450.908936" cy="189.579361" fx="450.908936" fy="189.579361" r="21.166656" gradientTransform="matrix(-0.000000348341,0.156265,0.281277,0.000000203077,-42.409041,-15.054958)">
<stop offset="0" style="stop-color:rgb(0%,0%,0%);stop-opacity:0.313726;"/>
<stop offset="0.222222" style="stop-color:rgb(0%,0%,0%);stop-opacity:0.27451;"/>
<stop offset="1" style="stop-color:rgb(0%,0%,0%);stop-opacity:0;"/>
</radialGradient>
<radialGradient id="radial2" gradientUnits="userSpaceOnUse" cx="450.908936" cy="189.579361" fx="450.908936" fy="189.579361" r="21.166656" gradientTransform="matrix(-0.000000348341,-0.156265,0.281277,-0.000000203077,-42.409041,127.190665)">
<stop offset="0" style="stop-color:rgb(0%,0%,0%);stop-opacity:0.313726;"/>
<stop offset="0.222222" style="stop-color:rgb(0%,0%,0%);stop-opacity:0.27451;"/>
<stop offset="1" style="stop-color:rgb(0%,0%,0%);stop-opacity:0;"/>
</radialGradient>
<radialGradient id="radial3" gradientUnits="userSpaceOnUse" cx="450.908936" cy="189.579361" fx="450.908936" fy="189.579361" r="21.166656" gradientTransform="matrix(0.000000348341,0.156265,-0.281277,0.000000203077,106.245857,-15.054959)">
<stop offset="0" style="stop-color:rgb(0%,0%,0%);stop-opacity:0.313726;"/>
<stop offset="0.222222" style="stop-color:rgb(0%,0%,0%);stop-opacity:0.27451;"/>
<stop offset="1" style="stop-color:rgb(0%,0%,0%);stop-opacity:0;"/>
</radialGradient>
<linearGradient id="linear1" gradientUnits="userSpaceOnUse" x1="254" y1="233.5" x2="254" y2="-168.666672" gradientTransform="matrix(0.125012,0,0,0.125012,0,26.877566)">
<stop offset="0" style="stop-color:rgb(95.686275%,26.274511%,21.176471%);stop-opacity:1;"/>
<stop offset="1" style="stop-color:rgb(93.725491%,32.549021%,31.37255%);stop-opacity:1;"/>
</linearGradient>
<linearGradient id="linear2" gradientUnits="userSpaceOnUse" x1="254" y1="233.5" x2="254" y2="-168.666672" gradientTransform="matrix(0.125012,0,0,0.125012,0,26.877566)">
<stop offset="0" style="stop-color:rgb(87.843138%,87.843138%,87.843138%);stop-opacity:1;"/>
<stop offset="1" style="stop-color:rgb(93.333334%,93.333334%,93.333334%);stop-opacity:1;"/>
</linearGradient>
</defs>
<g id="surface1">
<path style=" stroke:none;fill-rule:nonzero;fill:url(#linear0);" d="M 10.253906 56.066406 L 53.582031 56.066406 L 53.582031 58.714844 L 10.253906 58.714844 Z M 10.253906 56.066406 "/>
<path style=" stroke:none;fill-rule:nonzero;fill:url(#radial0);" d="M 53.582031 56.066406 L 58.875 56.066406 L 58.875 53.421875 L 53.582031 53.421875 Z M 53.582031 56.066406 "/>
<path style=" stroke:none;fill-rule:nonzero;fill:url(#radial1);" d="M 10.253906 56.066406 L 4.960938 56.066406 L 4.960938 58.714844 L 10.253906 58.714844 Z M 10.253906 56.066406 "/>
<path style=" stroke:none;fill-rule:nonzero;fill:url(#radial2);" d="M 10.253906 56.066406 L 4.960938 56.066406 L 4.960938 53.421875 L 10.253906 53.421875 Z M 10.253906 56.066406 "/>
<path style=" stroke:none;fill-rule:nonzero;fill:url(#radial3);" d="M 53.582031 56.066406 L 58.875 56.066406 L 58.875 58.714844 L 53.582031 58.714844 Z M 53.582031 56.066406 "/>
<path style=" stroke:none;fill-rule:nonzero;fill:url(#linear1);" d="M 7.277344 5.792969 L 56.230469 5.792969 C 57.324219 5.792969 58.214844 6.679688 58.214844 7.777344 L 58.214844 54.082031 C 58.214844 55.179688 57.324219 56.066406 56.230469 56.066406 L 7.277344 56.066406 C 6.179688 56.066406 5.292969 55.179688 5.292969 54.082031 L 5.292969 7.777344 C 5.292969 6.679688 6.179688 5.792969 7.277344 5.792969 Z M 7.277344 5.792969 "/>
<path style=" stroke:none;fill-rule:nonzero;fill:rgb(100%,100%,100%);fill-opacity:0.392157;" d="M 7.277344 5.953125 C 6.175781 5.953125 5.292969 6.835938 5.292969 7.9375 L 5.292969 8.265625 C 5.292969 7.167969 6.175781 6.28125 7.277344 6.28125 L 56.230469 6.28125 C 57.328125 6.28125 58.214844 7.167969 58.214844 8.265625 L 58.214844 7.9375 C 58.214844 6.835938 57.328125 5.953125 56.230469 5.953125 Z M 7.277344 5.953125 "/>
<path style=" stroke:none;fill-rule:nonzero;fill:rgb(1.176471%,1.176471%,1.176471%);fill-opacity:0.235294;" d="M 7.277344 55.90625 C 6.175781 55.90625 5.292969 55.023438 5.292969 53.921875 L 5.292969 53.59375 C 5.292969 54.691406 6.175781 55.578125 7.277344 55.578125 L 56.230469 55.578125 C 57.328125 55.578125 58.214844 54.691406 58.214844 53.59375 L 58.214844 53.921875 C 58.214844 55.023438 57.328125 55.90625 56.230469 55.90625 Z M 7.277344 55.90625 "/>
<path style=" stroke:none;fill-rule:nonzero;fill:rgb(12.941177%,12.941177%,12.941177%);fill-opacity:1;" d="M 7.277344 5.605469 C 6.078125 5.605469 5.105469 6.578125 5.105469 7.777344 L 5.105469 54.082031 C 5.105469 55.285156 6.078125 56.253906 7.277344 56.253906 L 56.230469 56.253906 C 57.429688 56.253906 58.402344 55.285156 58.402344 54.082031 L 58.402344 7.777344 C 58.402344 6.578125 57.429688 5.605469 56.230469 5.605469 Z M 7.277344 5.980469 L 56.230469 5.980469 C 57.226562 5.980469 58.027344 6.777344 58.027344 7.777344 L 58.027344 54.082031 C 58.027344 55.082031 57.226562 55.878906 56.230469 55.878906 L 7.277344 55.878906 C 6.277344 55.878906 5.480469 55.082031 5.480469 54.082031 L 5.480469 7.777344 C 5.480469 6.777344 6.277344 5.980469 7.277344 5.980469 Z M 7.277344 5.980469 "/>
<path style=" stroke:none;fill-rule:nonzero;fill:url(#linear2);" d="M 44.984375 13.765625 C 43.957031 13.785156 41.640625 13.992188 38.96875 15.328125 C 35.367188 17.132812 31.175781 20.957031 28.882812 29.335938 C 26.988281 36.25 24.136719 39.480469 21.679688 40.941406 C 20.453125 41.671875 19.332031 41.953125 18.511719 42.046875 C 18.246094 42.078125 18.0625 42.070312 17.859375 42.070312 L 17.859375 47.972656 C 18.804688 47.988281 20.902344 47.875 23.375 46.757812 C 26.734375 45.238281 30.726562 41.886719 33.1875 34.296875 L 33.324219 33.871094 L 41.484375 33.871094 L 41.484375 27.976562 L 35.9375 27.976562 L 36.132812 27.207031 C 36.132812 27.207031 36.597656 25.351562 38.003906 23.496094 C 39.332031 21.742188 41.578125 19.96875 44.984375 19.71875 Z M 44.984375 13.765625 "/>
<path style=" stroke:none;fill-rule:nonzero;fill:rgb(100%,100%,100%);fill-opacity:0.983871;" d="M 44.984375 13.765625 C 43.957031 13.785156 41.640625 13.992188 38.96875 15.328125 C 35.367188 17.132812 31.175781 20.957031 28.882812 29.335938 C 26.988281 36.25 24.136719 39.480469 21.679688 40.941406 C 20.453125 41.671875 19.332031 41.953125 18.511719 42.046875 C 18.246094 42.078125 18.0625 42.070312 17.859375 42.070312 L 17.859375 43.023438 C 18.0625 43.023438 18.246094 43.035156 18.511719 43.003906 C 19.332031 42.910156 20.453125 42.628906 21.679688 41.898438 C 24.136719 40.4375 26.988281 37.203125 28.882812 30.292969 C 31.175781 21.914062 35.367188 18.085938 38.96875 16.285156 C 41.640625 14.949219 43.957031 14.742188 44.984375 14.722656 Z M 36.183594 27.976562 C 36.148438 28.097656 36.132812 28.160156 36.132812 28.160156 L 35.9375 28.933594 L 41.484375 28.933594 L 41.484375 27.976562 Z M 36.183594 27.976562 "/>
<path style=" stroke:none;fill-rule:nonzero;fill:rgb(0%,0%,0%);fill-opacity:0.235294;" d="M 44.984375 19.707031 C 41.578125 19.960938 39.332031 21.734375 38.003906 23.484375 C 36.597656 25.339844 36.132812 27.195312 36.132812 27.195312 L 35.9375 27.964844 L 36.25 27.964844 C 36.460938 27.328125 36.984375 25.988281 38.003906 24.644531 C 39.332031 22.890625 41.578125 21.117188 44.984375 20.863281 Z M 33.324219 33.859375 L 33.1875 34.289062 C 30.726562 41.875 26.734375 45.226562 23.375 46.746094 C 20.902344 47.867188 18.804688 47.980469 17.859375 47.964844 L 17.859375 49.121094 C 18.804688 49.136719 20.902344 49.023438 23.375 47.90625 C 26.734375 46.382812 30.726562 43.035156 33.1875 35.445312 L 33.324219 35.015625 L 41.484375 35.015625 L 41.484375 33.859375 Z M 33.324219 33.859375 "/>
<path style="fill:none;stroke-width:3;stroke-linecap:butt;stroke-linejoin:miter;stroke:rgb(12.941177%,12.941177%,12.941177%);stroke-opacity:1;stroke-miterlimit:4;" d="M 359.840637 -104.885515 C 351.622672 -104.72928 333.093191 -103.073188 311.720232 -92.386709 C 282.910483 -77.950588 249.382435 -47.359759 231.040437 19.665091 C 215.885634 74.972309 193.075312 100.813591 173.420939 112.499975 C 163.609376 118.343167 154.641482 120.592952 148.079609 121.342881 C 145.954812 121.592857 144.486202 121.530363 142.861357 121.530363 L 142.861357 168.744604 C 150.423135 168.869592 167.202783 167.963429 186.982144 159.026782 C 213.854578 146.871693 245.789028 120.061753 265.474648 59.348801 L 266.568294 55.942876 L 331.843311 55.942876 L 331.843311 8.791129 L 287.472548 8.791129 L 289.034899 2.635467 C 289.034899 2.635467 292.753293 -12.206866 304.002219 -27.049198 C 314.626205 -41.079109 332.593239 -55.265254 359.840637 -57.265063 Z M 359.840637 -104.885515 " transform="matrix(0.125012,0,0,0.125012,0,26.877566)"/>
</g>
</svg>
